public/fonts/icons/files-fair-use.svg

<?xml version="1.0" encoding="UTF-8" standalone="no"?>
<svg width="60px" height="60px" viewBox="0 0 60 60" version="1.1" xmlns="http://www.w3.org/2000/svg" xmlns:xlink="http://www.w3.org/1999/xlink" xmlns:sketch="http://www.bohemiancoding.com/sketch/ns">
    <!-- Generator: Sketch 3.1.1 (8761) - http://www.bohemiancoding.com/sketch -->
    <title>Artboard</title>
    <desc>Created with Sketch.</desc>
    <defs></defs>
    <g id="Page-1" stroke="none" stroke-width="1" fill="none" fill-rule="evenodd" sketch:type="MSPage">
        <g id="Artboard" sketch:type="MSArtboardGroup">
            <g id="fair-use" sketch:type="MSLayerGroup">
                <g id="Icons" sketch:type="MSShapeGroup">
                    <g id="Artboard-3">
                        <g id="icon-fair-use">
                            <g id="bg-2">
                                <circle id="Oval-5" fill="#000000" cx="30" cy="30" r="30"></circle>
                                <circle id="Oval-6" fill="#FFFFFF" cx="30" cy="30" r="24"></circle>
                            </g>
                            <path d="M23,20 L23,39.1677636 L27.2147604,39.1677636 L27.2147604,31.2483095 L35.2415969,31.2483095 L35.2415969,27.9731454 L27.2147604,27.9731454 L27.2147604,23.5436202 L36.4764949,23.5436202 L36.4764949,20 L23,20 Z" id="F" fill="#000000"></path>
                        </g>
                    </g>
                </g>
            </g>
        </g>
    </g>
</svg>

<svg width="60" height="60" viewBox="0 0 60 60" xmlns="http://www.w3.org/2000/svg"><title>Files Fair Use</title><g fill="none" fill-rule="evenodd"><circle fill="#000" cx="30" cy="30" r="30"/><circle fill="#FFF" cx="30" cy="30" r="24"/><path d="M23 20v19.168h4.215v-7.92h8.027v-3.275h-8.027v-4.43h9.26V20H23z" fill="#000"/></g></svg>
